X:69
T: Graf und Nonne (Die Nonne)
N: Q1155F
O: Mitteleuropa, Deutschland (DDR) , Brandenburg, Uckermark, Gramzow
N: Melodievergleich zu Q0155I., anderes Lied.
R: Trink - Lied
M: 4/4
L: 1/8
K: G
D2 | G3DB,2D2 | G3FG2
B2 | A3FAGE2 | D4z2
GB | A2G2A2d2 | c2AcB2
A2 | G4F4 | G4z2

@@@ Tune index: 1779
